X:1
T:Radetzky March
T:Transcrita por T.S. Mastropiero, para piano facil
T:Johann Strauss I
%%score { 1 | 2 }
L:1/8
Q:1/4=176
M:4/4
K:D
V:1 treble nm="Piano" snm="Pno."
V:2 bass 
V:1
"^Vivement" dd d2 dd d2 | f2 e2 d3 c | (B^A)Bc d2 e2 | A2 z4 f^e | f z f^e f z fe | %5
 f z e z d z f^e | f z f^e f z fe | f z b z a z (af) | g z b z a z (ae) | f z b z a z af | %10
 e z c' z d z b z | c z (a^g) aba=g | f z f^e f z fe | f z e z d z f^e | f z f^e f z fe | %15
 f z b z a z (af) | ^g z f' z e'4 | z2 e' z d'4 | (c'3 b) agfe | d2 dd d2!8va(! d'c' | %20
 d' z d'c' d' z d'c' | d' z g' z b z d'c' | d' z d'c' d' z d'c' | d' z f' z a!8va)! z aa | %24
 (a4 g) z bb | (b4 a) z d'd' | c' z (c'b) a z g z | b z (ba) g z f z | (a4 g) z bb | %29
 (b4 a) z d'd' | c' z (c'^a) b z d' z | c' z (c'^a) b z d' z | [ff']4 [ff']4 | [ff']4 [ff']4 | %34
 [ff']4 z2 f^e | f z f^e f z fe | f z e z d z f^e | f z f^e f z fe | f z b z a z (af) | %39
 g z b z a z (ae) | f z b z a z af | e z c' z d z b z | c z (a^g) aba=g | f z f^e f z fe | %44
 f z e z d z f^e | f z f^e f z fe | f z b z a z (af) | ^g z f' z e'4 | z2 e' z d'4 | (c'3 b) agfe | %50
 d2 dd d2 z2 ||[K:A][Q:1/4=176]"^Vivement" e6 B2 | G2 E2 B2 G2 | e2 EE E2 E2 | E2 E2 E2 E2 | %55
 EA A4 E2 | EA A4 B2 | eac' z c' z c' z | [Ac]6 Bc | dg b4 a2 | (3gag f z f z f z | %61
 (ea)c' z c' z c' z | A6 E2 | Ec c4 E2 | Ec c4 d2 | eac' z c' z c' z | A6 Bc | dg b4 a2 | %68
 (3gag f z f z f z | (ea)c' z (dg)b z | a4 z4 |[M:1/4] GA |[M:4/4] (Bc) g4 f2 | %73
 (3(ef)e d z d z d z | cea z a z a z | A6 (GA) | Bd g4 f2 | (3(ef)e d z d z d z | %78
 (ce)ac' e'2 d'c' | bagf edcB | (Ec) c4 E2 | (Ec) c4 d2 | (ea)c' z c' z c' z | A6 (Bc) | dg b4 a2 | %85
 (3(ga)g f z f z f z | (ea)c' z (dg)b z | a4 z4!D.C.! |] %88
V:2
 D,D, D,2 D,D, D,2 | D,2 C,2 B,,3 A,, | ^G,,2 z4 G,,2 | A,,2 z2 z4 | D, z A, z F, z A, z | %5
 D, z A, z F, z A, z | D, z A, z F, z A, z | D, z A, z F, z A, z | C, z A, z G, z A, z | %9
 D, z A, z F, z A, z | E, z E, z ^G, z G, z | A,2 z2 [C,A,]4 | D, z A, z F, z A, z | %13
 D, z A, z F, z A, z | D, z A, z D, z A, z | D, z A, z F, z A, z | E,6 E,2 | [D,F,]6 [D,F,]2 | %18
 E,4 A,,4 | D,2 D,D, D,2 z2 | G, z B, z D, z B, z | G, z B, z D, z B, z | F, z A, z D, z A, z | %23
 F, z A, z D, z A, z | E, z A, z G, z A, z | D, z A, z F, z A, z | A, z A,G, F, z E, z | %27
 G, z G,F, E, z D, z | E, z A, z G, z A, z | D, z A, z F, z z2 | C, z (C,^A,,) B,, z D, z | %31
 C, z (C,^A,,) B,, z D, z | z2 F,^E, F, z F,E, | F, z F,^E, F, z F,E, | F,4 z4 | %35
 D, z A, z F, z A, z | D, z A, z F, z A, z | D, z A, z F, z A, z | D, z A, z F, z A, z | %39
 D, z A, z G, z A, z | D, z A, z F, z A, z | E, z E, z ^G, z G, z | A, z z2 [C,A,]4 | %43
 D, z A, z F, z A, z | D, z A, z F, z A, z | D, z A, z F, z A, z | D, z A, z F, z A, z | E,6 E,2 | %48
 [D,F,]6 [D,F,]2 | E,4 A,,4 | D,2 D,D, D,2 z2 ||[K:A] E6 B,2 | =G,2 E,2 B,2 G,2 | E2 E,2 E,2 E,2 | %54
 E,2 z2 z4 | A,,2 z2 E,2 z2 | A,,2 z2 E,2 z2 | A,,2 z2 E,2 z2 | A,,2 z2 E,2 z2 | E,,2 z2 E,2 z2 | %60
 E,,2 z2 E,2 z2 | A,,2 z2 E,2 z2 | A,,2 z2 E,2 z2 | A,,2 z2 E,2 z2 | A,,2 z2 E,2 z2 | %65
 A,,2 z2 E,2 z2 | A,,2 z2 E,2 z2 | E,,2 z2 E,2 z2 | E,,2 z2 E,2 z2 | [E,A,C]2 z2 [E,=G,D]2 z2 | %70
 A,,2 z2 [E,A,C]2 z2 |[M:1/4] z2 |[M:4/4] E,,2 E,2 B,2 E,2 | E,,2 E,2 =G,2 E,2 | A,,2 E,2 A,2 E,2 | %75
 A,,2 E,2 A,2 E,2 | E,,2 E,2 B,2 E,2 | E,,2 E,2 =G,2 G,2 | [C,F,A,]4 z4 | [E,=G,B,D]8 | %80
 A,,2 z2 E,2 z2 | A,,2 z2 E,2 z2 | A,,2 z2 E,2 z2 | A,,2 z2 E,2 z2 | E,,2 z2 E,2 z2 | %85
 E,,2 z2 E,2 z2 | [E,A,C]2 z2 [E,=G,D]2 z2 | A,,2 E,2 E,2 z2 |] %88

